svgs/sharp-light/house-turret.svg

<svg xmlns="http://www.w3.org/2000/svg" viewBox="0 0 640 512"><!--! Font Awesome Pro 6.4.0 by @fontawesome - https://fontawesome.com License - https://fontawesome.com/license (Commercial License) Copyright 2023 Fonticons, Inc. --><path d="M0 0H16 336h16V16 134.3L320 161V32H256V96v16H224V96 32H128V96v16H96V96 32H32V209.9l60 67.5 4 4.5V288 496v16H64V496 294.1L4 226.6l-4-4.5V216 16 0zM320 202.7L352 176l96-80L640 256V480v32H608 288 256V480 256l64-53.3zM192 192c0-8.8-7.2-16-16-16s-16 7.2-16 16v32h32V192zm-64 0c0-26.5 21.5-48 48-48s48 21.5 48 48v32 32H192 160 128V224 192zm160 79V480H608V271L448 137.7 288 271zm128 17v64h64V288H416zm0-32h64 32v32 64 32H480 416 384V352 288 256h32z"/></svg>

<svg xmlns="http://www.w3.org/2000/svg" viewBox="0 0 640 512"><!--! Font Awesome Pro 6.6.0 by @fontawesome - https://fontawesome.com License - https://fontawesome.com/license (Commercial License) Copyright 2024 Fonticons, Inc. --><path d="M0 0L16 0 336 0l16 0 0 16 0 118.3L320 161l0-129-64 0 0 64 0 16-32 0 0-16 0-64-96 0 0 64 0 16-32 0 0-16 0-64L32 32l0 177.9 60 67.5 4 4.5 0 6.1 0 208 0 16-32 0 0-16 0-201.9L4 226.6l-4-4.5L0 216 0 16 0 0zM320 202.7L352 176l96-80L640 256l0 224 0 32-32 0-320 0-32 0 0-32 0-224 64-53.3zM192 192c0-8.8-7.2-16-16-16s-16 7.2-16 16l0 32 32 0 0-32zm-64 0c0-26.5 21.5-48 48-48s48 21.5 48 48l0 32 0 32-32 0-32 0-32 0 0-32 0-32zm160 79l0 209 320 0 0-209L448 137.7 288 271zm128 17l0 64 64 0 0-64-64 0zm0-32l64 0 32 0 0 32 0 64 0 32-32 0-64 0-32 0 0-32 0-64 0-32 32 0z"/></svg>
